X: 21692
Q: "Jig."
M: 6/8
L: 1/8
K: G
c |\
|: d |\
gdg gbg | gbg afd | efg dBd | ecA A2f |\
gdg gbg | gbg afd | efg dBg | dBG G2 :|


